X:118
T:IRGNTMN- The Fine Ould Irish Gentleman
S:Howe's Songs of Ireland, 1864
Q:1/4=100
L:1/4
M:C
K:F
C| F/ F/4 F/4 F/ F E/ F/|G/ F/4 F/4 F/ G/G(C/ C/)|\
G/ G/4 G/4 G/ G/ G/ G/ G/|A/ G/ F/ G/ A3/2 A/|\
A/ A/ A/ A/ A/ A/ A/ A/|B/ A/ G/ A/BB/ B/|\
B/ B/ B/ B/ B/ B/ B/ B/|c/ B/ A/ B/ cF|F/ f/fed|d3/2c/ c3/2 c/|\
c/B/ A/ B/ AG|F2z|]

